assets/images/location-add.svg

<?xml version="1.0" encoding="UTF-8"?>
<svg id="Layer_1" xmlns="http://www.w3.org/2000/svg" version="1.1" viewBox="0 0 17 19">
  <!-- Generator: Adobe Illustrator 30.6.0, SVG Export Plug-In . SVG Version: 2.1.4 Build 109)  -->
  <path d="M12.5,10c.55,0,1,.45,1,1v2.5h2.5c.55,0,1,.45,1,1s-.45,1-1,1h-2.5v2.5c0,.55-.45,1-1,1s-1-.45-1-1v-2.5h-2.5c-.55,0-1-.45-1-1s.45-1,1-1h2.5v-2.5c0-.55.45-1,1-1Z"/>
  <path d="M7,0c3.87,0,7,3.04,7,6.8,0,.51-.07,1.01-.19,1.51-.4-.19-.84-.31-1.31-.31-1.66,0-3,1.34-3,3v.5h-.5c-1.66,0-3,1.34-3,3,0,.97.46,1.82,1.17,2.37-.11.08-.17.13-.17.13,0,0-7-5-7-10.2C0,3.04,3.13,0,7,0ZM7,3c-1.1,0-2,.9-2,2s.9,2,2,2,2-.9,2-2-.9-2-2-2Z" fill-rule="evenodd"/>
</svg>

<svg xmlns="http://www.w3.org/2000/svg" viewBox="0 0 17 19"><path d="M12.5 10c.55 0 1 .45 1 1v2.5H16c.55 0 1 .45 1 1s-.45 1-1 1h-2.5V18c0 .55-.45 1-1 1s-1-.45-1-1v-2.5H9c-.55 0-1-.45-1-1s.45-1 1-1h2.5V11c0-.55.45-1 1-1"/><path fill-rule="evenodd" d="M7 0c3.87 0 7 3.04 7 6.8 0 .51-.07 1.01-.19 1.51-.4-.19-.84-.31-1.31-.31-1.66 0-3 1.34-3 3v.5H9a2.996 2.996 0 0 0-1.83 5.37C7.06 16.95 7 17 7 17S0 12 0 6.8C0 3.04 3.13 0 7 0m0 3c-1.1 0-2 .9-2 2s.9 2 2 2 2-.9 2-2-.9-2-2-2"/></svg>
